X:1
T:E minor                           Amos Pilsbury, 1799 Arranged by Ananias Davisson, 1817
T:Charles Wesley, 1762             88. 88. (L. M.) Scripture Hymns No. 686
T:Kedron
T:Transcribed from The Kentucky Harmony, 1826.
%%score [ 1 2 3 4 ]
L:1/8
Q:1/4=110
M:4/4
K:G
V:1 treble nm="Tr." snm="Tr."
V:2 treble nm="C." snm="C."
V:3 treble-8 nm="T." snm="T."
V:4 bass nm="B." snm="B."
V:1
 B4 | B2 B2 e4 | d4 d2 c2 | B4 B4 | B2 B2 B4 | A4 G2 E2 | B8 |: B4 B2 B2 | d4 e4 | f2 Bc d4 || %10
w: 1.~Thou|man of griefs,|re- mem- ber|me, Who|ne- ver canst|thy- self for-|get|Thy last mys-|te- rious|a- go- * ny,|
w: 2.~When|wrest- ling in|the strength of|prayer Thy|spi- rit sunk|be- neath its|load,|Thy fee- ble|flesh ab-|horred to * bear|
 d4 ed B2 | B4 (G3 B) |1 d2 B2 B4 :|2 d2 B2 B4- | B4 z4 |] %15
w: Thy fain- * ting|pangs, and *|bloo- dy sweat.|||
w: The wrath * of|an Al- *|migh- ty God.|||
V:2
 E4 | G2 B2 B4 | A4 FE D2 | E4 E4 | E2 E2 G4 | A4 D2 E2 | E8 |: E4 E2 E2 | D4 G4 | F2 E2 D4 || %10
w: 3.~A|taste of thy|tor- men- * ting|fears If|now thou dost|to me im-|part,|Give the full|vir- tue|of thy tears,|
w: 4.~U-|nite my sor-|rows to * thine|own, And|let me to|my God com-|plain,|Who mel- ted|by thy|Spi- rit's groan,|
 F4 G2 F2 | E4 E4 |1 D2 D2 E4 :|2 D2 D2 E4- | E4 z4 |] %15
w: The cries which|pierced the|Fa- ther's heart.|||
w: Can save me|from that|end- less pain.|||
V:3
 (G3 F) | E2 E2 B4 | A4 G2 F2 | E4 (G3 A) | B2 B2 e4 | (f2 e2) d2 c2 | B8 |: e4 d2 e2 | B4 G4 | %9
w: 5.~Fa- *|ther, if I|may call thee|so, Re- *|gard my fear-|ful * heart's de-|sire,|Re- move this|load of|
w: 6.~I *|trem- ble, lest|the wrath d-|vine Which *|brui- ses now|my * wret- ched|soul,|Should bruise this|wret- ched|
 d2 B2 A4 || A4 B2 d2 | e4 (d B3) |1 AG F2 E4 :|2 AG F2 E4- | E4 z4 |] %15
w: guil- ty woe,|Nor let me|in my *|sins * ex- pire.|||
w: soul of mine|Long as e-|ter- nal *|a- * ges roll.|||
V:4
 E,4 | E,2 B,,2 E,4 | D,4 D,2 E,2 | B,,4 B,,4 | E,2 E,2 G,4 | D,4 D,2 E,2 | B,,8 |: E,4 B,2 B,2 | %8
w: 7.~To|thee my last|dis- tress I|bring: The|heigh- tened fear|of death I|find;|The ty- rant|
w: 8.~I|de- pre- cate|that death a-|lone, That|end- less ba-|nish- ment from|thee:|O save, and|
 G,4 B,4 | A,2 G,2 D,4 || %10
w: bran- dish-|ing his sting|
w: give me|to thy Son,|
"^______________________________________________________________________________________________________________\n    The version shown above is of Ananias Danisson's \nGarland\n from 1817, with Charles Wesley's original words from 1762.\n    The tune was first published by Amos Pilsbury for four parts in his \nUnited States Sacred Harmony\n, 1799, without attribution. Arramged by \nElkanah Dare for three parts in 1813; then by Ananias Davisson for four parts in 1816 and again in 1817, the latter as \nGarland\n  (with different \nwords by Isaac Watts, \"How pleasant, how divinely fair\"). It was arranged again by Alexander Johnson for four parts in 1818; this arrangement \nbecame the basis for the three-part versions in \nSouthern Harmony\n, 1835 (p. 3) and \nThe Sacred Harp\n, 1844 (p. 48). \nThe complex history of this tune is discussed at length by David Music (1995); he concludes that Pilsbury arranged a folk tune obtained\norally or from an unattributed manuscript.\n    The words Pilsbury (1799) used are the first stanza of Hymn 686 by Charles Wesley, 1762, altered; they were further altered by \nWilliam Walker (1835), so that the line reads \n          Thou man of grief, remember me;\n          Thou never canst thyself forget\n          Thy last expiring agony,\n          Thy fainting pangs, and bloody sweat. \nSince these alterations changed the meaning of Wesley's hymn, the words shown above are Wesley's original words.\n    A folk hymn, derived from one or several folk songs (Jackson 1953b, No. 57)." D,4 G,2 G,2 | %11
w: Ap- pears, and|
w: Who trem- bled,|
 E,4 E,4 |1 A,,2 B,,2 E,4 :|2 A,,2 B,,2 E,4- | E,4 z4 |] %15
w: hell is|close be- hind!|||
w: wept, and|bled for me.|||

